X:5283
T:Professor Blackie
O:england
C:J. Scott Skinner
M:4/4
L:1/8
K:D
C2|:D4F3D|FE DC D2FA|d2d2c2d2|B2d2A2A2|
B3A G2B2|A2d2F2A2|G3F E2D2|C2E2A2A2|
D4F3D|FE DC D2FA|d2d2c2d2|B2d2A2A2|
B3A G2B2|A2d2cB AG|F2D2F3E|[1D6C2:|[2D6g2
|:f3e d2f2|e2a2c2e2|d3c B2d2|c2e2A2=c2|
B2d2G2B2|A2d2F2A2|G3F E2D2|C2E2A2g2|
f3e d2f2|e2a2c2e2|d3c B2d2|c2e2A2=c2|
B2d2G2B2|A2d2cB AG|F2D2F3E|[1D6g2:|[2D6z2|]


